X:55
T:Archie Menzies
R:Reel
D:Irish Dancing Tape (P. Acc)
N:Highland Whisky version
Z:John Chambers <jc:trillian.mit.edu>
M:4/4
L:1/8
K:F
C2 \
| "F"F2CF AFEF | Acde fcAF | "Gm"G2 DG BGDG | Bdef "C7"gdBG | "F"F2CF AFEF |
Acde fcAF | "Gm"BdGB "F"AcFA | "C7"GFDE "F"F2 :: e2 | "F"f2cf afef | cfag fedc |
"Gm"g2dg bg^fg | dgba "C7"g=fed | "F"cfef afef | cfag fedc | "Gm"BdGB "F"AcFA | "C7"GFDE "F"F2 :|
